X: 12176
T: Exile's Return, The
R: hornpipe
M: 4/4
K: Dmajor
AA|FAfA FAfA|GAeA FAfa|(3gbg (3faf (3ege (3dfd|(3cec (3BcB (3AcA (3GBG|
FAfA (3FAd fA|GAeA FAfa|(3gbg (3faf (3ege (3dfd|1 (3cBA Bc d2:|(3cBA Bc dF FF|:
fg ef df cd|BF Bd fd Bd|(3c^AF ^Ac fe dc|BF Bd fd Bg|
fg ef df cd|BF Bd fd Bd|cF ^Ac fe dc|1 BF dc B2 ag:|BF dc B2|

